X: 38620
T: Stool Of Repentance, The
R: jig
M: 6/8
K: Dmajor
c2A AcA|AcA e2c|d2B BGB|BGB fed|
c2A AcA|AcA e2c|d2e f2e|fac B2A:|
cAA eAA|cAA edc|dBB fBB|f2e fga|
cAA eAA|cAA edc|d2e f2e|fac B2A:|
a3 c2e|agf edc|a2f f2e|fag fed|
a3 c2e|agf edc|d2e f2e|fac B2A:|
c2e ecA|cde edc|d2f fdB|adB fdB|
c2e ecA|cde edc|d2e f2e|fac B2A:|

